X:1
T:Marcia Turca
T:Wolfrang Amadeus Mozart
T:Wolfrang Amadeus Mozart - Marcia Turca
T:Wolfrang Amadeus Mozart - Marcia Turca
Z:Wolfrang Amadeus Mozart - Marcia Turca
%%score [ 1 2 ]
L:1/8
M:2/4
K:C
V:1 treble transpose=-12 nm="Ch. 1"
V:2 treble transpose=-12 nm="Ch. 2"
V:1
|: !0!B/!2!A/!1!^G/!2!A/ | !1!c z !3!d/!1!c/!0!B/!1!c/ | %2
 !0!e z"^<font face=\"Times New Roman\"></font>IV" !3!f/!2!e/!1!^d/!2!e/ | %3
 !4!b/!2!a/!1!^g/!2!a/ !4!b/!2!a/!1!g/"^<font face=\"Times New Roman\"></font>V"!1!a/ | %4
 !4!c'2 !1!a!4!c' | !3!b!1!a!4!g!1!a | !3!b!1!a!4!g!1!a | !3!b!1!a!4!g!3!^f | !0!e2 :: %9
"^<font face=\"Times New Roman\"></font>III" !3!e!4!f | !1!gg !3!a/!1!g/!4!f/!3!e/ | %11
 !1!d2 !3!e!4!f | !1!gg !3!a/!1!g/!4!f/!3!e/ | !1!d2 !1!c!3!d | !0!ee !1!f/!0!e/!3!d/!1!c/ | %15
 !0!B2 !1!c!3!d | !0!ee !1!f/!0!e/!3!d/!1!c/ | !0!B2 B/!2!A/!1!^G/!2!A/ | %18
 !1!c z !3!d/!1!c/!0!B/!1!c/ | !0!e z"^IV" !3!f/!2!e/!1!^d/!2!e/ | %20
 !4!b/!2!a/!1!^g/!2!a/ !4!b/!2!a/!1!g/"^V"!1!a/ | !4!c'2 !1!a!3!b | !4!c'!3!b!1!a!1!^g | %23
 !2!a!0!e!1!f!3!d | !1!c2 !0!B2 | !2!A2!fine! :: %26
[K:A]"^<font face=\"Times New Roman\"></font>VII" !4!a!1!b | !3!c'2 !4!a!1!b | !3!c'!1!b!4!a!3!g | %29
 !1!f!3!g!4!a!1!b | !3!g!2!e!4!a!1!b | !3!c'2 !4!a!1!b | !3!c'!1!b!4!a!3!g | !1!f!1!b!3!g!2!e | %34
 !4!a2!D.C.! :| %35
V:2
|: z2 | A,[Ac] [Ac][Ac] | A,[Ac] [Ac][Ac] | A,[Ac] A,[Ac] | A,[Ac] [Ac][Ac] | E[GB] [GB][GB] | %6
 E[GB] [GB][GB] | E[GB] B,[GB] | E,2 :: z2 | Cc Ee | G,G z2 | Cc Ee | G,G z2 | A,A Cc | E,E z2 | %16
 A,A Cc | E,E z2 | A,[Ac] [Ac][Ac] | A,[Ac] [Ac][Ac] | A,[Ac] A,[Ac] | F,[A^d] [Ad][Ad] | %22
 E[Ae] D[Bf] | C[Ae] D[Bd] | [EA]2 [E,^G]2 | [A,A]2 ::[K:A] z2 | [A,EA]A AA | [A,EA]A AA | %29
 [DFA]d [^DFA]^d | [E,GB]e ee | [A,EA]A AA | [A,EA]A AA | [DFA]d [E,GB]e | [A,Ace]2 :| %35

